X: 4023
T: Blackwater, The
R: polka
M: 2/4
K: Gmajor
|:D>E GA|Bd B2|AG BA|GE E/F/G/E/|
D>E GA|Bd B2|AG BA|1 G2 GE:|2 G2 GB/d/||
|:gg e/f/g/e/|dB d2|G>A BG|AG E/F/G/E/|
D>E GA|Bd B2|AG BA|1 G2 GB/d/:|2 G2 GE||

